X:4
T:I Looked East and I Looked West
D:Julia and Billy Clifford, "Ceol as Sliabh Luachra"
R:polka
M:2/4
L:1/8
K:G
| GB BA/G/ | FA AB/A/ | GA Bc | d2 cA |
| GB BA/G/ | FA DA/B/ | cA FA |1 G2 GD :|2  G2 GB |
|: dg fe | fA A>B | cd ef | g2 fe |
| dg fe | fA A>B | ca FA | G2 G2 :|
